X: 863
T: Alec Menzies
R: barndance
M: 4/4
K: Gmajor
~d3 e dBGB|d^cde dBGB|c2 (3cde dBGB|cBAG A>F D2|
~d3 e dBGB|d^cde dBGB|c2 (3cde dBGB|1 A/B/A GF GABc:|2 A/B/A GF G3A||
D2A2 A^GAF|D2 B2 BABG|ABcd ecAG|FGAB AFD2|
GBd2 ~d3B|cdef g2fe|dBec BcEF|A<G B2 G4:|

